static/img/olake/olake-product-5.svg

<svg width="73" height="72" viewBox="0 0 73 72" fill="none" xmlns="http://www.w3.org/2000/svg">
<circle cx="36.6667" cy="36" r="36" fill="#333333"/>
<path fill-rule="evenodd" clip-rule="evenodd" d="M25 22.6663C24.0795 22.6663 23.3333 23.4125 23.3333 24.333V47.6663C23.3333 48.5868 24.0795 49.333 25 49.333H35V22.6663H25ZM25 19.333C22.2386 19.333 20 21.5716 20 24.333V47.6663C20 50.4278 22.2386 52.6663 25 52.6663H48.3333C51.0948 52.6663 53.3333 50.4278 53.3333 47.6663V24.333C53.3333 21.5716 51.0948 19.333 48.3333 19.333H25ZM38.3333 22.6663V49.333H48.3333C49.2538 49.333 50 48.5868 50 47.6663V24.333C50 23.4125 49.2538 22.6663 48.3333 22.6663H38.3333Z" fill="#193AE6"/>
</svg>

<svg xmlns="http://www.w3.org/2000/svg" width="73" height="72" fill="none" viewBox="0 0 73 72"><circle cx="36.667" cy="36" r="36" fill="#333"/><path fill="#193ae6" fill-rule="evenodd" d="M25 22.666c-.92 0-1.667.747-1.667 1.667v23.333c0 .92.747 1.667 1.667 1.667h10V22.666zm0-3.333a5 5 0 0 0-5 5v23.333a5 5 0 0 0 5 5h23.333a5 5 0 0 0 5-5V24.333a5 5 0 0 0-5-5zm13.333 3.333v26.667h10c.92 0 1.667-.746 1.667-1.667V24.333c0-.92-.746-1.667-1.667-1.667z" clip-rule="evenodd"/></svg>
